actions/64/document-revert.svg

<?xml version="1.0" encoding="UTF-8" standalone="no"?>
<svg
   xmlns:dc="http://purl.org/dc/elements/1.1/"
   xmlns:cc="http://creativecommons.org/ns#"
   xmlns:rdf="http://www.w3.org/1999/02/22-rdf-syntax-ns#"
   xmlns:svg="http://www.w3.org/2000/svg"
   xmlns="http://www.w3.org/2000/svg"
   xmlns:xlink="http://www.w3.org/1999/xlink"
   version="1.1"
   width="64"
   height="64"
   id="svg3982">
  <defs
     id="defs3984">
    <linearGradient
       x1="38.940514"
       y1="15.991243"
       x2="20.576487"
       y2="15.991243"
       id="linearGradient3218"
       xlink:href="#linearGradient4087"
       gradientUnits="userSpaceOnUse"
       gradientTransform="matrix(0,-1.2038361,-1.2933405,0,46.269481,59.87912)" />
    <linearGradient
       id="linearGradient4087">
      <stop
         id="stop4089"
         style="stop-color:#ffffff;stop-opacity:1"
         offset="0" />
      <stop
         id="stop4091"
         style="stop-color:#ffffff;stop-opacity:0.23529412"
         offset="0.51153916" />
      <stop
         id="stop4093"
         style="stop-color:#ffffff;stop-opacity:0.15686275"
         offset="0.58522105" />
      <stop
         id="stop4095"
         style="stop-color:#ffffff;stop-opacity:0.39215687"
         offset="1" />
    </linearGradient>
    <linearGradient
       x1="23.731871"
       y1="4.4175272"
       x2="23.731871"
       y2="42.03978"
       id="linearGradient3221"
       xlink:href="#linearGradient3846"
       gradientUnits="userSpaceOnUse"
       gradientTransform="matrix(-1.1036024,0,0,1.0272288,48.236984,4.3049199)" />
    <linearGradient
       id="linearGradient3846">
      <stop
         id="stop3848"
         style="stop-color:#fff3cb;stop-opacity:1"
         offset="0" />
      <stop
         id="stop3850"
         style="stop-color:#fdde76;stop-opacity:1"
         offset="0.26238" />
      <stop
         id="stop3852"
         style="stop-color:#f9c440;stop-opacity:1"
         offset="0.66093999" />
      <stop
         id="stop3854"
         style="stop-color:#e48b20;stop-opacity:1"
         offset="1" />
    </linearGradient>
    <linearGradient
       x1="35.998066"
       y1="37.038586"
       x2="35.998066"
       y2="4.0044417"
       id="linearGradient3223"
       xlink:href="#linearGradient3856"
       gradientUnits="userSpaceOnUse"
       gradientTransform="matrix(-1.1036024,0,0,1.0272288,48.236984,4.3049199)" />
    <linearGradient
       id="linearGradient3856">
      <stop
         id="stop3858"
         style="stop-color:#b67926;stop-opacity:1"
         offset="0" />
      <stop
         id="stop3860"
         style="stop-color:#eab41a;stop-opacity:1"
         offset="1" />
    </linearGradient>
    <radialGradient
       cx="24.837126"
       cy="36.421127"
       r="15.644737"
       fx="24.837126"
       fy="36.421127"
       id="radialGradient3207"
       xlink:href="#linearGradient8662"
       gradientUnits="userSpaceOnUse"
       gradientTransform="matrix(1,0,0,0.536723,0,16.87306)" />
    <linearGradient
       id="linearGradient8662">
      <stop
         id="stop8664"
         style="stop-color:#000000;stop-opacity:1"
         offset="0" />
      <stop
         id="stop8666"
         style="stop-color:#000000;stop-opacity:0"
         offset="1" />
    </linearGradient>
    <linearGradient
       x1="23.99999"
       y1="5.5641499"
       x2="23.99999"
       y2="43"
       id="linearGradient3093"
       xlink:href="#linearGradient3977-4"
       gradientUnits="userSpaceOnUse"
       gradientTransform="matrix(1.2162162,0,0,1.5405376,2.8108184,-6.9729501)" />
    <linearGradient
       id="linearGradient3977-4">
      <stop
         id="stop3979-7"
         style="stop-color:#ffffff;stop-opacity:1"
         offset="0" />
      <stop
         id="stop3981-6"
         style="stop-color:#ffffff;stop-opacity:0.23529412"
         offset="0.03626217" />
      <stop
         id="stop3983-5"
         style="stop-color:#ffffff;stop-opacity:0.15686275"
         offset="0.95056331" />
      <stop
         id="stop3985-6"
         style="stop-color:#ffffff;stop-opacity:0.39215687"
         offset="1" />
    </linearGradient>
    <linearGradient
       x1="25.132275"
       y1="0.98520643"
       x2="25.132275"
       y2="47.013336"
       id="linearGradient3096"
       xlink:href="#linearGradient3600-9"
       gradientUnits="userSpaceOnUse"
       gradientTransform="matrix(1.3428567,0,0,1.2819685,-0.2285551,-2.7340501)" />
    <linearGradient
       id="linearGradient3600-9">
      <stop
         id="stop3602-3"
         style="stop-color:#f4f4f4;stop-opacity:1"
         offset="0" />
      <stop
         id="stop3604-7"
         style="stop-color:#dbdbdb;stop-opacity:1"
         offset="1" />
    </linearGradient>
    <linearGradient
       x1="-51.786404"
       y1="50.786446"
       x2="-51.786404"
       y2="2.9062471"
       id="linearGradient3098"
       xlink:href="#linearGradient3104"
       gradientUnits="userSpaceOnUse"
       gradientTransform="matrix(1.0843525,0,0,1.1997316,79.550873,-4.1627801)" />
    <linearGradient
       id="linearGradient3104">
      <stop
         id="stop3106"
         style="stop-color:#a0a0a0;stop-opacity:1"
         offset="0" />
      <stop
         id="stop3108"
         style="stop-color:#bebebe;stop-opacity:1"
         offset="1" />
    </linearGradient>
    <radialGradient
       cx="605.71429"
       cy="486.64789"
       r="117.14286"
       fx="605.71429"
       fy="486.64789"
       id="radialGradient3153"
       xlink:href="#linearGradient5060"
       gradientUnits="userSpaceOnUse"
       gradientTransform="matrix(0.03132633,0,0,0.02058823,35.220859,49.45142)" />
    <linearGradient
       id="linearGradient5060">
      <stop
         id="stop5062"
         style="stop-color:#000000;stop-opacity:1"
         offset="0" />
      <stop
         id="stop5064"
         style="stop-color:#000000;stop-opacity:0"
         offset="1" />
    </linearGradient>
    <radialGradient
       cx="605.71429"
       cy="486.64789"
       r="117.14286"
       fx="605.71429"
       fy="486.64789"
       id="radialGradient3156"
       xlink:href="#linearGradient5060"
       gradientUnits="userSpaceOnUse"
       gradientTransform="matrix(-0.03132632,0,0,0.02058823,28.779136,49.45142)" />
    <linearGradient
       id="linearGradient5048">
      <stop
         id="stop5050"
         style="stop-color:#000000;stop-opacity:0"
         offset="0" />
      <stop
         id="stop5056"
         style="stop-color:#000000;stop-opacity:1"
         offset="0.5" />
      <stop
         id="stop5052"
         style="stop-color:#000000;stop-opacity:0"
         offset="1" />
    </linearGradient>
    <linearGradient
       x1="302.85715"
       y1="366.64789"
       x2="302.85715"
       y2="609.50507"
       id="linearGradient3980"
       xlink:href="#linearGradient5048"
       gradientUnits="userSpaceOnUse"
       gradientTransform="matrix(0.09153846,0,0,0.02058823,-1.084616,49.45142)" />
  </defs>
  <metadata
     id="metadata3987">
    <rdf:RDF>
      <cc:Work
         rdf:about="">
        <dc:format>image/svg+xml</dc:format>
        <dc:type
           rdf:resource="http://purl.org/dc/dcmitype/StillImage" />
        <dc:title />
      </cc:Work>
    </rdf:RDF>
  </metadata>
  <g
     id="layer1">
    <rect
       width="44.199997"
       height="5"
       x="9.8999996"
       y="57.000004"
       id="rect2879"
       style="opacity:0.3;fill:url(#linearGradient3980);fill-opacity:1;fill-rule:nonzero;stroke:none;stroke-width:1;marker:none;visibility:visible;display:inline;overflow:visible" />
    <path
       d="m 9.9,57.00022 c 0,0 0,4.9997 0,4.9997 -1.6132281,0.01 -3.9,-1.1202 -3.9,-2.5002 0,-1.38 1.8002408,-2.4995 3.9,-2.4995 z"
       id="path2881"
       style="opacity:0.3;fill:url(#radialGradient3156);fill-opacity:1;fill-rule:nonzero;stroke:none;stroke-width:1;marker:none;visibility:visible;display:inline;overflow:visible" />
    <path
       d="m 54.099999,57.00022 c 0,0 0,4.9997 0,4.9997 C 55.713227,62.00992 58,60.87972 58,59.49972 c 0,-1.38 -1.800241,-2.4995 -3.900001,-2.4995 z"
       id="path2883"
       style="opacity:0.3;fill:url(#radialGradient3153);fill-opacity:1;fill-rule:nonzero;stroke:none;stroke-width:1;marker:none;visibility:visible;display:inline;overflow:visible" />
    <path
       d="m 8.4999609,0.49995993 c 10.7701071,0 47.0000371,0.004 47.0000371,0.004 l 5.6e-5,58.99606007 c 0,0 -31.333395,0 -47.0000931,0 0,-19.6667 0,-39.3332 0,-58.99981007 z"
       id="path4160-6"
       style="fill:url(#linearGradient3096);fill-opacity:1;stroke:url(#linearGradient3098);stroke-width:0.99992186;stroke-linecap:butt;stroke-linejoin:round;stroke-miterlimit:4;stroke-opacity:1;stroke-dasharray:none;stroke-dashoffset:0;display:inline" />
    <path
       d="m 54.499999,58.50002 -44.9999992,0 0,-57.0000401 44.9999992,0 z"
       id="rect6741-1-8"
       style="fill:none;stroke:url(#linearGradient3093);stroke-width:1;stroke-linecap:round;stroke-linejoin:miter;stroke-miterlimit:4;stroke-opacity:1;stroke-dasharray:none;stroke-dashoffset:0" />
    <path
       d="m 40.481863,36.421127 a 15.644737,8.3968936 0 1 1 -31.2894745,0 15.644737,8.3968936 0 1 1 31.2894745,0 z"
       transform="matrix(1.0227081,0,0,-1.3100083,0.598871,86.71202)"
       id="path3501"
       style="opacity:0.14117647;fill:url(#radialGradient3207);fill-opacity:1;fill-rule:evenodd;stroke:none;stroke-width:1;marker:none;visibility:visible;display:inline;overflow:visible" />
    <path
       d="m 31.342283,44.04842 c 14.012885,-9.4598 5.776941,-26.833 -9.842281,-26.6904 l 0,-8.8580201 -19,14.5000201 19,14.5 0,-8.8389 c 10.073768,-0.3907 15.637156,8.7865 8.435428,15.3873 z"
       id="path3503"
       style="fill:url(#linearGradient3221);fill-opacity:1;fill-rule:nonzero;stroke:url(#linearGradient3223);stroke-width:1;stroke-linecap:butt;stroke-linejoin:round;stroke-miterlimit:7;stroke-opacity:1;stroke-dasharray:none;stroke-dashoffset:0;marker:none;visibility:visible;display:block;overflow:visible" />
    <path
       d="m 32.953925,41.73072 c 10.260804,-9.0249 2.116612,-24.2942 -12.367262,-23.3084 L 20.413342,10.587 4.143257,22.97562 l 16.270085,12.4316 0,-7.698 c 15.02695,-0.3432 14.931241,11.4338 12.540583,14.0215 z"
       id="path3505"
       style="opacity:0.8;fill:none;stroke:url(#linearGradient3218);stroke-width:0.96392483;stroke-linecap:butt;stroke-linejoin:miter;stroke-miterlimit:7;stroke-opacity:1;stroke-dasharray:none;stroke-dashoffset:0;marker:none;visibility:visible;display:block;overflow:visible" />
  </g>
</svg>

<svg xmlns="http://www.w3.org/2000/svg" xmlns:xlink="http://www.w3.org/1999/xlink" viewBox="0 0 64 64"><defs><linearGradient x1="38.941" y1="15.991" x2="20.576" y2="15.991" id="s" xlink:href="#a" gradientUnits="userSpaceOnUse" gradientTransform="matrix(0 -1.20384 -1.29334 0 46.27 59.88)"/><linearGradient id="a"><stop offset="0" stop-color="#fff"/><stop offset=".512" stop-color="#fff" stop-opacity=".235"/><stop offset=".585" stop-color="#fff" stop-opacity=".157"/><stop offset="1" stop-color="#fff" stop-opacity=".392"/></linearGradient><linearGradient x1="23.732" y1="4.418" x2="23.732" y2="42.04" id="q" xlink:href="#b" gradientUnits="userSpaceOnUse" gradientTransform="matrix(-1.1036 0 0 1.02723 48.237 4.305)"/><linearGradient id="b"><stop offset="0" stop-color="#fff3cb"/><stop offset=".262" stop-color="#fdde76"/><stop offset=".661" stop-color="#f9c440"/><stop offset="1" stop-color="#e48b20"/></linearGradient><linearGradient x1="35.998" y1="37.039" x2="35.998" y2="4.004" id="r" xlink:href="#c" gradientUnits="userSpaceOnUse" gradientTransform="matrix(-1.1036 0 0 1.02723 48.237 4.305)"/><linearGradient id="c"><stop offset="0" stop-color="#b67926"/><stop offset="1" stop-color="#eab41a"/></linearGradient><radialGradient cx="24.837" cy="36.421" r="15.645" fx="24.837" fy="36.421" id="p" xlink:href="#d" gradientUnits="userSpaceOnUse" gradientTransform="matrix(1 0 0 .53672 0 16.873)"/><linearGradient id="d"><stop offset="0"/><stop offset="1" stop-opacity="0"/></linearGradient><linearGradient x1="24" y1="5.564" x2="24" y2="43" id="o" xlink:href="#e" gradientUnits="userSpaceOnUse" gradientTransform="matrix(1.21622 0 0 1.54054 2.81 -6.973)"/><linearGradient id="e"><stop offset="0" stop-color="#fff"/><stop offset=".036" stop-color="#fff" stop-opacity=".235"/><stop offset=".951" stop-color="#fff" stop-opacity=".157"/><stop offset="1" stop-color="#fff" stop-opacity=".392"/></linearGradient><linearGradient x1="25.132" y1=".985" x2="25.132" y2="47.013" id="m" xlink:href="#f" gradientUnits="userSpaceOnUse" gradientTransform="matrix(1.34286 0 0 1.28197 -.23 -2.734)"/><linearGradient id="f"><stop offset="0" stop-color="#f4f4f4"/><stop offset="1" stop-color="#dbdbdb"/></linearGradient><linearGradient x1="-51.786" y1="50.786" x2="-51.786" y2="2.906" id="n" xlink:href="#g" gradientUnits="userSpaceOnUse" gradientTransform="matrix(1.08435 0 0 1.19973 79.55 -4.163)"/><linearGradient id="g"><stop offset="0" stop-color="#a0a0a0"/><stop offset="1" stop-color="#bebebe"/></linearGradient><radialGradient cx="605.714" cy="486.648" r="117.143" fx="605.714" fy="486.648" id="l" xlink:href="#h" gradientUnits="userSpaceOnUse" gradientTransform="matrix(.03133 0 0 .0206 35.22 49.45)"/><linearGradient id="h"><stop offset="0"/><stop offset="1" stop-opacity="0"/></linearGradient><radialGradient cx="605.714" cy="486.648" r="117.143" fx="605.714" fy="486.648" id="k" xlink:href="#h" gradientUnits="userSpaceOnUse" gradientTransform="matrix(-.03133 0 0 .0206 28.78 49.45)"/><linearGradient id="i"><stop offset="0" stop-opacity="0"/><stop offset=".5"/><stop offset="1" stop-opacity="0"/></linearGradient><linearGradient x1="302.857" y1="366.648" x2="302.857" y2="609.505" id="j" xlink:href="#i" gradientUnits="userSpaceOnUse" gradientTransform="matrix(.09154 0 0 .0206 -1.085 49.45)"/></defs><path opacity=".3" fill="url(#j)" overflow="visible" d="M9.9 57h44.2v5H9.9z"/><path d="M9.9 57v5c-1.613.01-3.9-1.12-3.9-2.5S7.8 57 9.9 57z" opacity=".3" fill="url(#k)" overflow="visible"/><path d="M54.1 57v5c1.613.01 3.9-1.12 3.9-2.5S56.2 57 54.1 57z" opacity=".3" fill="url(#l)" overflow="visible"/><path d="M8.5.5l47 .004V59.5h-47V.5z" fill="url(#m)" stroke="url(#n)" stroke-linejoin="round"/><path d="M54.5 58.5h-45v-57h45z" fill="none" stroke="url(#o)" stroke-linecap="round"/><path d="M40.482 36.42a15.645 8.397 0 1 1-31.29 0 15.645 8.397 0 1 1 31.29 0z" transform="matrix(1.0227 0 0 -1.31 .6 86.712)" opacity=".141" fill="url(#p)" fill-rule="evenodd" overflow="visible"/><path d="M31.342 44.048c14.013-9.46 5.777-26.833-9.842-26.69V8.5L2.5 23l19 14.5v-8.84c10.074-.39 15.637 8.788 8.435 15.388z" fill="url(#q)" stroke="url(#r)" stroke-linejoin="round" stroke-miterlimit="7" display="block" overflow="visible"/><path d="M32.954 41.73c10.26-9.024 2.117-24.293-12.367-23.308l-.174-7.835-16.27 12.39 16.27 12.43V27.71c15.027-.344 14.932 11.433 12.54 14.02z" opacity=".8" fill="none" stroke="url(#s)" stroke-width=".964" stroke-miterlimit="7" display="block" overflow="visible"/></svg>
